!!!OTL: 1341. Soldatenleben. / [Aelteres Lied.]
!!!ODT: 1866 (vor)
!!!ARE: Europa, Mitteleuropa, Deutschland, Hessen, Nassau
!!!SCT: E1347
!!!TXL: @@DE
!!!YEM: Copyright 1995, estate of Helmut Schaffrath.
**kern	**text
*ICvox	*
*M4/4	*
*met(c)	*
*k[f#]	*
*G:	*
=1	=1
!LO:TX:a:t=Aus dem Naſſauerlande (vor 1866).	!
{4.d	Lu-
8g	-ſtig
4g	iſts
4g	Sol-
=2	=2
4g	-da-
8f#L	-ten-
8gJ	.
4a	-le-
4d}	-ben!
=3	=3
{4b/	für
4b/	den
4b/	Her-
4b/	-ʒog
=4	=4
4b/	wolln
4dd	wir
4cc	ge-
4b}	-ben
=5	=5
{4.a	un-
8g	-ſern
4f#	letʒ-
4g	-ten
=6	=6
4a	Trop-
4b/	-fen
4a}	Blut
{4d	Sol-
=7	=7
4cc	-da-
4ee	-ten
4dd	müſ-
4b	-ſen
=8	=8
4a	ha-
8aL	-ben
8bJ	.
4g	Muth,
4r}	.
=9	=9
{4a	ha-
4a	-ben
4b/	Muth,
4g	Sol-
=10	=10
4cc	-da-
4ee	-ten
4dd	müſ-
4b	-ſen
=11	=11
4a	ha-
8aL	-ben
8bJ	.
2g}	Muth.
==	==
!!!AGN: Staende -, Soldaten -, Kriegs - Lied
!!!ONB: ESAC (Essen Associative Code) Database: ERK3
!!!AMT: simple quadruple
!!!AIN: vox
!!!EED: Helmut Schaffrath
!!!EEV: 1.0
!!!GTL: Staendelieder (Berufslieder). 1. Soldaten- und Kriegslieder. Soldatenlieder seit dem 30jaehr. Kriege.
!!!URL-scan: https://rosdok.uni-rostock.de/mcrviewer/recordIdentifier/rosdok_ppn745177999/iview2/phys_0229.iview2?x=-128.77276441889285&y=838.3672339970944&scale=0.5870222003877487&rotation=0&layout=singlePageLayout
!!!ENC: Anna Maria Matuszewska
!!!EEV: 2024/12/30
*-	*-
